X:1
T:De profundis - Fux
T:#
%%score [ 1 2 3 4 ]
L:1/8
Q:1/4=180
M:none
K:C
V:1 treble nm="Soprano" snm="S"
V:2 treble nm="Alto" snm="A"
V:3 treble-8 nm="Tenor" snm="T"
V:4 bass nm="Bass" snm="B"
V:1
"^Psalm 130 (Vulgate 129)""^De profundis""^Johann Joseph Fux\n (1660-1741)" z16 | z16 | z16 | %3
w: |||
 A12 A4 | F4 D4 A4 d4- |[M:4/2] (d4 c4) B4 B4 | (e6 d2) (c8 | B6) B2 A8- | A8 z8 | e6 d2 c4 A4 | %10
w: De pro-|fun- dis cla- ma\-|* * vi ad|te * Do\-|* mi- ne:||Do- mi- ne ex-|
 d6 c2 B4 G2 B2 | c6 B2 A4 A4 | _B8 A8 | z4 A8 A4 | A4 A4 _B8 | A4 d8 c4 | (B6 c2 d2 A2 d4- | %17
w: au- di vo- cem, ex-|au- di vo- cem|me- am.|Fi- ant|au- res tu-|ae in- ten-|den\- * * * *|
 d2 cB c8 B4) | c16 | z16 | z8 d4 c4 | _B4 c4 A4 F4 | G4 c4 (A2 B2 c4- | c4) B4 c4 (c4- | %24
w: |tes.||Si i-|ni- qui- ta- tes|ob- ser- va\- * *|* ve- ris Do\-|
 c2 _B2 A2 G2 A6) A2 | _B4 d6 d2 d4 | _B8 z4 B4 | _B2 A2 (A8 G4) | A16 | z16 | z16 | z16 | %32
w: * * * * * mi-|ne: Do- mi- ne|quis, quis|su- sti- ne\- *|bit?||||
 z4 A4 B4 B4 | c6 _B2 (A4 d4) | _B8 z4 c4 | c6 _B2 A4 A4 | _B4 B4 A4 A4- | A4 (G8 F4 | E6) E2 D8 | %39
w: Et pro- pter|le- gem tu\- *|am su-|sti- nu- i te|Do- mi- ne, te|* Do\- *|* mi- ne.|
 z16 | z16 | z16 | c4 (d8 c2 B2 | c4 A4) B4 c4- | c4 _B2 A2 (G4 A2 B2) | A4 c6 _B2 B4- | %46
w: |||Spe- ra\- * *|* * vit a\-|* ni- ma me\- * *|a, a- ni- ma|
 B4 (A8 G2 F2) | G4 A4 G6 G2 | F16 | z16 | z16 | F4 F4 G4 A4 | _B4 B8 A4 | G8 F4 A4- | %54
w: * me\- * *|a in Do- mi-|no.|||A cu- sto- di-|a ma- tu-|ti- na us\-|
 A2 A2 G4 F8 | E4 c8 _B4 | A6 A2 G8- | G8 z8 | z8 z4 d4- | d4 c4 _B4 B4 | A4 A4 A6 A2 | A4 A8 d4 | %62
w: * que ad no-|ctem: spe- ret|Is- ra- el,||spe\-|* ret Is- ra-|el in Do- mi-|no. Qui- a|
 c4 B4 A4 B4 | c12 d4 | c4 c4 _B8- | (B4 A8 G4- | G4) ^F4 G8 | z4 _B4 B4 B4 | _B8 A4 d4- | %69
w: a- pud Do- mi-|num mi-|se- ri- cor\-||* di- a:|et co- pi-|o- sa a\-|
 d4 c4 _B8 | A6 A2 (G4 F4-) | F4 E4 F8 | z8 z4 F4 | _B8 G4 c4- | c2 _B2 (A2 G2) F4 G4 | %75
w: * pud e-|um re- dem\- *|* ti- o.|Et|i- pse re\-|* di- met * Is- ra-|
 A4 A4 A6 A2 | A8 z4 f4 | f6 e2 d4 d4 | c4 c4 _B4 B4 | _B8 A8- | A8 !fermata!A16 || z8 z4 (A4- | %82
w: el, ex o- mni-|bus, ex|o- mni- bus i-|ni- qui- ta- ti-|bus e\-|* ius.|Glo\-|
 A2 B2 c2 d2 e2) e2 e4- | e2 d2 d2 (cB) c4 c4 | B4 B6 A2 A4- | A2 A2 A4 (^G4 A4-) | %86
w: * * * * * ri- a|* Pa- tri, et * Fi- li-|o, et Spi- ri\-|* tu- i san\- *|
 (A4 ^G4) A4 A4- | A4 A4 B8 | B4 d6 c2 c4- | c4 B4 c4 G4 | G4 G4 A8 | G16 | z8 z4 c4- | %93
w: * * cto: Si\-|* cut e-|rat in prin- ci\-|* pi- o, et|nunc, et sem-|per,|et|
 c2 _B2 B6 A2 A4- | A4[Q:1/4=176] G8[Q:1/4=171] (F2[Q:1/4=170] G2) | %95
w: * in sae- cu- la|* sae- cu\- *|
[Q:1/4=167] A4[Q:1/4=164] A4[Q:1/4=159] A8- |[Q:1/4=153] A8[Q:1/4=150] !fermata!A16 |] %97
w: lo- rum, A\-|* men.|
V:2
 z16 | z16 | z8 D8- | D4 D4 C4 A,4 | D4 (A6 G2 F2 ED) |[M:4/2] E4 E4 G4 (G4- | %6
w: ||De|* pro- fun- dis|cla- ma\- * * * *|vi ad te Do\-|
 G2 F2 E2 FG A2 E2 A4- | A4) ^G4 A8- | A8 z8 | z8 A6 G2 | F4 D4 G6 F2 | E4 C2 E2 F6 E2 | %12
w: |* mi- ne:||Do- mi-|ne ex- au- di|vo- cem, ex- au- di|
 (D4 G8) F4 | E8 D4 D4- | D4 D4 D4 D4 | F8 E4 A4- | A4 G4 (F8 | E8 D8) | C16 | z16 | z16 | %21
w: vo\- * cem|me- am. Fi\-|* ant au- res|tu- ae in\-|* ten- den\-||tes.|||
 z8 C4 D4 | E4 (D2 E2) F4 A4 | G6 F2 E6 E2 | D4 G8 ^F4 | G4 _B6 B2 B4 | G8 z4 G4 | G2 F2 (F8 D4) | %28
w: Si i-|ni- qui\- * ta- tes|ob- ser- va- ve-|ris Do- mi-|ne: Do- mi- ne|quis, quis|su- sti- ne\- *|
 E16 | z16 | z16 | z4 D4 E4 E4 | F6 E2 (D4 G4) | E4 (G8 ^F4) | G4 G4 G6 F2 | E12 F4 | G4 G4 F6 E2 | %37
w: bit?|||Et pro- pter|le- gem tu\- *|am, tu\- *|am su- sti- nu-|i te|Do- mi- ne, te|
 (D8 ^C4 D4- | D4) ^C4 D8 | z16 | z16 | z16 | z16 | E4 (F8 E2 D2) | (E4 D4 E4 F2 G2) | %45
w: Do\- * *|* mi- ne.|||||Spe- ra\- * *||
 F4 A6 G2 G4- | G4 (F8 E2 D2) | E2 E2 F8 E4 | F8 z8 | C4 C4 D6 E2 | F4 F8 E4 | D8 C8 | %52
w: vit a- ni- ma|* me\- * *|a in Do- mi-|no.|A cu- sto- di-|a ma- tu-|ti- na|
 z4 G4 C4 C4 | (D4 E4 F8- | F4 C8 B,4) | C4 (C2 D2 E2 F2 G4- | G2) C2 F6 E2 E4- | E4 D4 C8- | %58
w: us- que ad|no\- * *||ctem: spe\- * * * *|* ret, spe- ret Is-|* ra- el,|
 C8 (D6 E2 | F2 G2 A6) D2 G4- | G2 F2 F2 F2 E6 E2 | D8 z4 F4- | F4 F4 E4 D4 | E6 E2 F4 _B4- | %64
w: * spe\- *|* * * ret Is\-|* ra- el in Do- mi-|no. Qui\-|* a a- pud|Do- mi- num mi\-|
 B4 A6 G2 G4- | (G4 F6 E2 D4- | D4) D4 D8 | z4 G4 G4 G4 | G8 F4 D4- | D4 E4 (F4 G4) | F6 E2 D6 D2 | %71
w: * se- ri- cor\-||* di- a:|et co- pi-|o- sa a\-|* pud e\- *|um re- dem- pti-|
 C8 z4 C4 | F8 D8 | G6 F2 (E8- | E4 F4) D4 D4 | ^C4 (C2 D2) E6 E2 | E4 E4 F2 G2 (A4- | %77
w: o. Et|i- pse|re- di- met|* * Is- ra-|el, ex * o- mni-|bus i- ni- qui- ta\-|
 A4 G2 A2 _B2 A2 G4- | G2 FE F6) E2 D4- | D4 (G8 F4 | E8) !fermata!D16 || (D6 E2 F2 G2 A4- | %82
w: |* * * * ti- bus|* e\- *|* ius.|Glo\- * * * *|
 A4) A4 A4 E4 | F4 D4 E6 E2 | D4 D4 E2 E2 E4- | E4 D4 E8 | E4 E8 E4 | (E4 ^F4) G8- | G4 A4 G8 | %89
w: * ri- a Pa-|tri, et Fi- li-|o, et Spi- ri- tu\-|* i san-|cto: Si- cut|e\- * rat|* in prin-|
 F6 F2 E4 E4 | E4 E4 F8 | E16 | z8 z4 A4- | A2 G2 G6 F2 F4- | F4 E2 D2 ^C2 C2 (D4 | E4) F4 (E6 D2 | %96
w: ci- pi- o, et|nunc, et sem-|per,|et|* in sae- cu- la|* sae- cu- lo- rum, A\-|* men, A\- *|
 E8) !fermata!D16 |] %97
w: * men.|
V:3
 z8 A8- | A4 A4 F4 D4 | A4 (d6 c2) _B4 | A4 (F2 G2) A8- | A4 A4 A8- |[M:4/2][K:treble-8] A8 z8 | %6
w: De|* pro- fun- dis|cla- ma\- * vi|ad te * Do\-|* mi- ne:||
 z16 | e6 d2 c4 A4 | d6 c2 B4 G2 B2 | c6 B2 A8 | (B8 G8 | A8) F2 D2 d4- | d2 d2 e6 d2 (d4- | %13
w: |Do- mi- ne ex-|au- di vo- cem, ex-|au- di vo\-||* cem, ex- au\-|* di vo- cem me\-|
 d4 ^c4) d8- | d8 z8 | z16 | z16 | z8 G8 | A8 G4 c4- | c4 _B4 A4 A4 | (G4 A4 _B4) A4 | G8 A8 | %22
w: * * am.||||In|vo- cem de\-|* pre- ca- ti-|o\- * * nis|me- ae.|
 z16 | z16 | z8 d6 d2 | d8 _B8 | d8 z4 d4 | ^c4 c4 d8 | ^c16 | z4 d8 c4 | _B4 G4 A4 A4 | %31
w: ||Do- mi-|ne quis,|quis, quis|su- sti- ne-|bit?|Qui- a|a- pud te pro-|
 G2 A2 _B8 A2 G2 | A8 z8 | z8 z4 d4 | d6 c2 (_B4 G4) | c4 c6 _B2 A4 | d12 (D2 E2 | F4) G4 A8 | %38
w: pi- ti- a- ti- o|est:|su-|sti- nu- i, *|su- sti- nu- i|te Do\- *|* mi- ne.|
 z4 A4 B6 B2 | c4 e6 e2 d4 | c8 B6 c2 | (d2 c2 A2 B2 c4) B4 | (A12 ^G4) | A8 z8 | A4 (_B8 A2 G2 | %45
w: Su- sti- nu-|it a- ni- ma|me- a in|ver\- * * * * bo|e\- *|ius:|spe- ra\- * *|
 A4) F4 G6 G2 | A8 _B8- | B4 A2 _B2 c6 c2 | A16 | z8 F8 | F8 G6 A2 | _B4 B8 A4 | G8 F4 A4 | %53
w: * vit a- ni-|ma me\-|* a in Do- mi-|no.|A|cu- sto- di-|a ma- tu-|ti- na us-|
 _B6 B2 (A4 F4- | F4 G4 A4 F4) | G8 z8 | z8 z4 c4- | c4 _B4 (A8 | G6) G2 F4 f4- | f4 f4 d6 d2 | %60
w: que ad no\- *||ctem:|spe\-|* ret Is\-|* ra- el, spe\-|* ret Is- ra-|
 ^c2 c2 d8 c4 | d8 z4 A4- | A4 d4 c4 B4 | A6 G2 F4 F4 | G4 A4 (_B4 c2 d2) | (c6 _Bc d4 B4 | %66
w: el in Do- mi-|no. Qui\-|* a a- pud|Do- mi- num mi-|se- ri- cor\- * *||
 A6) A2 _B8 | z4 d4 d4 d4 | (d6 e2) f4 f4- | f4 e4 d8 | c4 c4 (_B4 A4) | G6 G2 A8 | z4 F4 _B8 | %73
w: * di- a:|et co- pi-|o\- * sa a\-|* pud e-|um re- dem\- *|* ti- o.|Et i-|
 G12 A4- | A2 G2 F4 F4 (E2 D2) | E4 e4 ^c6 c2 | ^c4 c4 d4 d4 | (d6 c2 _B4) B4 | A4 c4 d2 e2 f4- | %79
w: pse re\-|* di- met Is- ra\- *|el, ex o- mni-|bus i- ni- qui-|ta\- * * ti-|bus, i- ni- qui- ta\-|
 f2 e2 d4 (^c4 d4- | d4 ^c4) !fermata!d16 || z8 A6 B2 | (c2 d2 e2 d2) c4 B2 B2 | A6 A2 G4 e4 | %84
w: * ti- bus e\- *|* * ius.|Glo- ri-|a * * * Pa- tri, et|Fi- li- o, et|
 f6 f2 e3 d (c4- | c4 B2 A2 B4 c4) | B8 A4 c4- | c4 c4 d8 | d4 A4 (B4 G4) | d6 d2 G4 c4 | %90
w: Spi- ri- tu- i san\-||* cto: Si\-|* cut e-|rat in prin\- *|ci- pi- o, et|
 c4 c4 c8 | c4 c8 c4 | _B6 (AG) A4 f2 e2 | d8 c8- | c4 (G4 A6 B2 | ^c4 d8 c2 B2 | %96
w: nunc, et sem-|per, et in|sae- cu\- * la sae- cu-|lo- rum,|* A\- * *||
 ^c8) !fermata!d16 |] %97
w: * men.|
V:4
 D,12 D,4 | C,4 A,,4 D,4 (A,4- | A,2 G,2 F,2 E,2 D,4) G,4 | F,4 (D,2 E,2) F,6 E,2 | D,16 | %5
w: De pro-|fun- dis cla- ma\-|* * * * * vi|ad te * Do- mi-|ne:|
[M:4/2] z16 | z16 | z8 A,6 G,2 | F,4 D,4 G,6 F,2 | E,4 C,2 E,2 F,6 E,2 | (D,8 E,8 | C,8 D,8) | %12
w: ||Do- mi-|ne ex- au- di|vo- cem, ex- au- di|vo\- *||
 G,8 (A,8 | A,,8) D,8- | D,16 | D,8 z8 | z16 | z16 | z4 C,4 E,8 | D,4 G,8 F,4 | %20
w: cem me\-|* am.|||||In vo-|cem de- pre-|
 E,4 C,4 D,2 E,2 (F,4- | F,4 E,4) F,8 | z16 | z16 | z16 | G,6 G,2 G,8 | G,8 z4 G,4 | A,4 A,4 _B,8 | %28
w: ca- ti- o- nis me\-|* * ae.||||Do- mi- ne|quis, quis|su- sti- ne-|
 A,4 A,8 G,4 | F,4 D,4 E,6 E,2 | D,4 E,4 (F,4 E,2 D,2 | E,4 D,4 C,4) C,4 | F,8 G,8 | z16 | %34
w: bit? Qui- a|a- pud te pro-|pi- ti- a\- * *|* * * ti-|o est:||
 G,4 G,6 F,2 E,4 | C,4 A,,4 C,4 D,4 | (G,,2 A,,2 _B,,2 C,2 D,6 C,2 | _B,,6) B,,2 A,,8- | %38
w: su- sti- nu- i|te Do- mi- ne.|Do\- * * * * *|* mi- ne.|
 A,,8 z4 D,4 | E,6 E,2 F,8 | z4 A,6 A,2 G,4 | F,8 E,4 E,4 | (F,2 E,2) (D,2 C,2) B,,8 | A,,8 z8 | %44
w: * Su-|sti- nu- it|a- ni- ma|me- a in|ver\- * bo * e-|ius:|
 z16 | z16 | z16 | z8 C,4 C,4 | D,6 E,2 F,4 F,4- | F,4 E,4 (D,4 _B,,4) | A,,4 D,4 _B,,4 C,4 | %51
w: |||A cu-|sto- di- a ma\-|* tu- ti\- *|na us- que ad|
 (D,8 E,4 F,4- | F,4 E,4) F,4 F,4 | (_B,,4 C,4 D,6 E,2 | F,4 E,4 D,8) | C,8 z8 | z8 (C,6 D,2 | %57
w: no\- * *|* * ctem, ad|no\- * * *||ctem:|spe\- *|
 E,2 F,2 G,6) C,2 F,4- | F,4 E,4 D,6 C,2 | _B,,4 F,4 G,6 G,2 | A,4 D,4 A,,6 A,,2 | D,16 | z16 | %63
w: * * * ret, spe\-|* ret Is- ra-|el in Do- mi-|no, in Do- mi-|no.||
 z4 A,8 D,4 | E,4 F,4 G,6 F,2 | E,4 F,4 _B,,6 C,2 | D,6 D,2 G,,4 G,4 | G,4 G,4 G,8 | %68
w: Qui- a|a- pud Do- mi-|num mi- se- ri-|cor- di- a: et|co- pi- o-|
 (G,,2 A,,2 _B,,2 C,2 D,4) !courtesy!_B,,4- | B,,4 C,4 (D,4 E,4) | F,4 F,4 _B,,8 | C,6 C,2 F,,8 | %72
w: sa * * * * a\-|* pud e\- *|um re- dem\-|* ti- o.|
 z16 | z4 G,,4 C,8 | A,,4 D,6 C,2 _B,,4 | A,,6 A,,2 A,,8 | z4 A,4 D,6 E,2 | F,4 F,4 G,8 | %78
w: |Et i-|pse re- di- met|Is- ra- el,|ex o- mni-|bus i- ni-|
 A,8 _B,6 A,2 | G,8 (A,8 | A,,8) !fermata!D,16 || z4 D,6 E,2 (F,2 G,2) | A,8 A,4 G,4 | %83
w: qui- ta- ti-|bus e\-|* ius.|Glo- ri- a *|Pa- tri, et|
 F,4 F,4 E,4 A,,4 | D,4 D,4 C,6 (D,E,) | F,8 E,4 E,4- | E,4 E,4 A,8- | A,8 G,4 G,4- | %88
w: Fi- li- o, et|Spi- ri- tu- i *|san- cto: Si\-|* cut e\-|* rat in|
 G,4 F,4 (E,8 | D,6) D,2 C,4 C,4 | C,4 C,4 F,8 | C,8 C,4 C,4 | D,6 E,2 F,8 | G,4 G,,4 A,,6 _B,,2 | %94
w: * prin- ci\-|* pi- o, et|nunc, et sem-|per, et in|sae- cu- la|sae- cu- lo- rum,|
 (C,6 _B,,2 A,,8- | A,,16 | A,,8) !fermata!D,16 |] %97
w: A\- * *||* men.|

